X: 41
T:Johnny's Lover's gone
% Nottingham Music Database
S:Appalachian, via PR
M:4/4
L:1/4
K:G
"G"GG BB|"C"c/2B/2c "D7"dB|"G"G/2F/2G/2A/2 BB|"C"cB/2c/2 "D7"A/2F/2E/2D/2|
"G"G/2F/2G/2A/2 BB|"C"c/2B/2c "D7"dA|"D7"d/2e/2d/2c/2 BA|"G"G3d::
"G"gg "D7"aa|"G"bb d2|"C"c/2B/2A/2c/2 "G"B/2A/2G/2B/2|"D7"A/2B/2A/2G/2 F/2E/2D\
|
"G"g2 "D7"a2|"G"bb d2|"C"c/2B/2A/2c/2 "G"B/2A/2G/2B/2|"D7"A/2G/2F "G"G2:|<end>
<start>
